!!!!SEGMENT: pl-wtm--670-sp-3678--001-012_reichardt-johann-friedrich--piosenki-dla-mlodocianego-wieku-piotr-maszynski-12-jesien.krn
!!!cenid: 18xx:4764
!!!COM: Reichardt, Johann Friedrich
!!!COM-rismID: pe40133
!!!CDT: 1752/11/25-1814/06/27
!!!CNT: German
!!!GTL: Piosenki dla młodocianego wieku (Piotr Maszyński)
!!!OTL: 12. Jesień
!!!OMV: 012
!!!PDT: 1871
!!!AGN: Secular; Song; Children
!!!YEC: Copyright 2022 Narodowy Instytut Fryderyka Chopina (https://polishscores.org)
!!!YEM: License CC-BY-4.0 (https://creativecommons.org/licenses/by/4.0)
!!!SMS-siglum: PL-Wtm
!!!SMS-shelfmark: 670 śp 3678
!!!SMS-variant:
!!!SMS-altvar:
!!!SMS-shelfwork: 001-012 G
!!!NIFC-rismSourceID: 1001185478
!!!NIFC-rismChildID: 1001185478
!!!NIFC-islandoraID: pl-wtm:57754
!!!URL-pdf-islandora: https://repozytorium.nifc.pl/islandora/object/pl-wtm%3A57754/datastream/PDF/view
!!!URL-scan: https://polish.musicsources.pl/pl/lokalizacje/galeria/druki-muzyczne/19483/10 @EN{Scan on Polish Music Sources Website} @PL{Skany w portalu Dziedzictwo Muzyki Polskiej w otwartym dostępie}
!!!IIIF:
!!!ONB-nifc:
!!!AIN: 1 piano 1 vox
!!!key:
!!!OMD: Poco Allegro.
**kern	**fing	**kern	**fing	**dynam	**kern	**text	**text	**text	**text	**dynam
*part2	*part2	*part2	*part2	*part2	*part1	*part1	*part1	*part1	*part1	*part1
*staff3	*staff3	*staff2	*staff2	*staff2/3	*staff1	*staff1	*staff1	*staff1	*staff1	*staff1
*I"Fortepian.	*	*I"Fortepian.	*	*	*I"Śpiew.	*	*	*	*	*
*I'pf	*	*I'pf	*	*	*I'V	*	*	*	*	*
*Ipiano	*	*Ipiano	*	*	*Ivox	*	*	*	*	*
*ICklav	*	*ICklav	*	*	*ICvox	*	*	*	*	*
*IGacmp	*	*IGacmp	*	*	*IGsolo	*	*	*	*	*
*>[A,A,A,A]	*>[A,A,A,A]	*>[A,A,A,A]	*>[A,A,A,A]	*>[A,A,A,A]	*>[A,A,A,A]	*>[A,A,A,A]	*>[A,A,A,A]	*>[A,A,A,A]	*>[A,A,A,A]	*>[A,A,A,A]
*>A	*>A	*>A	*>A	*>A	*>A	*>A	*>A	*>A	*>A	*>A
*clefF4	*	*clefG2	*	*	*clefG2	*	*	*	*	*
*k[f#c#g#]	*	*k[f#c#g#]	*	*	*k[f#c#g#]	*	*	*	*	*
*A:	*	*A:	*	*	*A:	*	*	*	*	*
*M6/8	*	*M6/8	*	*	*M6/8	*	*	*	*	*
=1	=1	=1	=1	=1	=1	=1	=1	=1	=1	=1
*	*	*	*	*	*	*v :1	*v :2	*v :3	*v :4	*
!	!	!LO:TX:t=P:problem=palcowanie obok nut	!	!	!	!	!	!	!	!
(8AA\L	.	4a 4c#/	2 5	p	4a/	Je-	Od-	Ra-	Za-	p
8E\	.	.	.	.	.	.	.	.	.	.
8A\J)	.	8a 8c#/	.	.	8a/	-sień	-kąd	-taj	-nim	.
(8AA\L	.	(8aL 8c#/	.	.	(8a/L	i-	w każ-	wy-	sza-	.
8E\	.	8g# 8B/)	.	.	8g#/J)	.	.	.	.	.
8A\J)	.	8aJ 8c#/	.	.	8a/	-dzie,	-de	-szedł	-re	.
=2	=2	=2	=2	=2	=2	=2	=2	=2	=2	=2
(8E\L	.	4.b 4.d/	1 5	.	4.b\	je-	ra-	w po-	wro-	.
8G#\	.	.	.	.	.	.	.	.	.	.
8E\J)	.	.	.	.	.	.	.	.	.	.
(8AA\L	.	4.a 4.c#/	2 5	.	4.a/	-sień,	-no	-le	-ny	.
8E\	.	.	.	.	.	.	.	.	.	.
8A\J)	.	.	.	.	.	.	.	.	.	.
=3	=3	=3	=3	=3	=3	=3	=3	=3	=3	=3
(8AA\L	.	4cc# 4a\	1 3	.	4cc#\	już	zie-	kra-	cią-	.
8E\	.	.	.	.	.	.	.	.	.	.
8A\J)	.	8cc# 8a\	.	.	8cc#\	zło-	-mię	-jać	-gną	.
(8AA\L	.	(8cc#L 8a/	.	.	(8cc#\L	-cis-	nie-	czar-	na	.
8E\	.	8b 8g#/)	.	.	8b\J)	.	.	.	.	.
8A\J)	.	8cc#J 8a/	.	.	8cc#\	-ty	-o-	-ną	za-	.
=4	=4	=4	=4	=4	=4	=4	=4	=4	=4	=4
(8AA\L	.	4.dd 4.b\	.	.	4.dd\	wrze-	-ra-	ro-	-go-	.
8E\	.	.	.	.	.	.	.	.	.	.
8A\J)	.	.	.	.	.	.	.	.	.	.
(8AA\L	.	4.cc# 4.a\	.	.	4.cc#\	-sień	-ną	-lę	-ny	.
8E\	.	.	.	.	.	.	.	.	.	.
8A\J)	.	.	.	.	.	.	.	.	.	.
!!LO:LB:g=original
=5	=5	=5	=5	=5	=5	=5	=5	=5	=5	=5
*	*	*^	*	*	*	*	*	*	*	*
(8BB\L	.	4b 4g#/	4.ryy	2 4	.	4b\	wszyst-	wcze-	w sze-	bru-	.
8E\	.	.	.	.	.	.	.	.	.	.	.
8G#\J)	.	8b 8g#/	.	.	<	8b\	-ko	-sny	-reg	-zdą	<
(8BB\L	.	(8b/L	4a\	2	.	(8b\L	z po-	bie-	rów-	w płu-	.
8F#\	.	8cc#/)	.	.	.	8cc#\J)	.	.	.	.	.
8A\J)	.	8dd#X/J	8f#\	.	[[	8dd#X\	-la	-li	-nych	-ga	[[
*	*	*v	*v	*	*	*	*	*	*	*	*
=6	=6	=6	=6	=6	=6	=6	=6	=6	=6	=6
8G#L 8E\	.	4.ee 4.g#\	.	.	4.ee\	zmiótł.	szron,	skib,	ślad,	.
(8B\	.	.	.	>	.	.	.	.	.	.
8G#\J	.	.	.	.	.	.	.	.	.	.
*	*below	*	*	*	*	*	*	*	*	*
8E\L	1	4r	.	.	4r	.	.	.	.	.
8Dn\	.	.	.	.	.	.	.	.	.	.
8BB\J)	.	8r	.	]]	8r	.	.	.	.	.
=7	=7	=7	=7	=7	=7	=7	=7	=7	=7	=7
*^	*^	*	*	*	*	*	*	*	*	*
4AA/	(>8AA\L	.	.	4cc# 4e/	.	p	4cc#\	Z wia-	cią-	bo	nic	p
.	8E\	2	.	.	.	.	.	.	.	.	.	.
8ryy	8G#J 8BB\)	.	4	8b 8e/	.	.	8b\	-trem	-gną	on	ich	.
4C#/	(>8C#\L	.	5	4a 4e/	.	<	4a/	pow-	lo-	wie,	nie	<
.	8E\	.	.	.	.	.	.	.	.	.	.	.
8ryy	8BJ 8C#\)	.	.	8g# 8e#X/	2 4	.	8g#/	-łó-	-tne	że	od-	.
*	*	*v	*v	*	*	*	*	*	*	*	*	*
=8	=8	=8	=8	=8	=8	=8	=8	=8	=8	=8	=8
!LO:N:vis=8.	!	!	!	!	!	!	!	!	!	!	!
(8D/L	4.D\	4	4.f# 4.d/	.	.	4.f#/	-czyś-	pta-	za-	-stra-	.
8F#/	.	.	.	.	.	.	.	.	.	.	.
8A/J)	.	.	.	.	.	.	.	.	.	.	.
!LO:N:vis=8.	!	!	!	!	!	!	!	!	!	!	!
(8C#/L	4.C#\	.	4.f# 4.en/	.	.	4.f#/	-cie	-ki	-to	-szy	.
8F#/	.	.	.	.	.	.	.	.	.	.	.
*	*	*above	*	*	*	*	*	*	*	*	*
8A#X/J)	.	2	.	.	.	.	.	.	.	.	.
!!LO:LB:g=original
=9	=9	=9	=9	=9	=9	=9	=9	=9	=9	=9	=9
*	*	*^	*^	*	*	*	*	*	*	*	*
4BB/	(>8BB\L	.	.	4dd 4f#/	4.ryy	.	.	4dd\	żół-	po-	ma	od	.
.	8F#\	.	.	.	.	.	.	.	.	.	.	.	.
8ryy	8A#XJ 8C#\)	1	4	8cc# 8f#/	.	.	.	8cc#\	-te	-wietrz-	na	tej	.
4D/	(>8D\L	.	5	8b/L	4f#\	.	.	(8b\L	le-	-ne	przysz-	zie-	.
.	8F#\	.	.	8cc#/	.	.	.	8cc#\J)	.	.	.	.	.
8ryy	8BJ 8D#X\)	.	4	8a/J	8f#\	2 4	.	8a/	-cą	mi	-łe	-mi	.
*	*	*v	*v	*	*	*	*	*	*	*	*	*	*
*	*	*	*v	*v	*	*	*	*	*	*	*	*
=10	=10	=10	=10	=10	=10	=10	=10	=10	=10	=10	=10
*	*	*below	*	*	*	*	*	*	*	*	*
!	!LO:N:vis=8.	!	!	!	!	!	!	!	!	!	!
4.E/	(>8E\L	3	4.g# 4.e/	.	.	4.g#/	liś-	szla-	la-	na-	.
.	8G#\	.	.	.	.	.	.	.	.	.	.
.	8B\J)	.	.	.	.	.	.	.	.	.	.
!	!LO:N:vis=8.	!	!	!	!	!	!	!	!	!	!
4.D/	(>8Dn\L	.	4.g# 4.e/	.	.	4.g#/	-cie,	-ki	-to	-szej	.
.	8G#\	.	.	.	.	.	.	.	.	.	.
.	8B\J)	.	.	.	.	.	.	.	.	.	.
=11	=11	=11	=11	=11	=11	=11	=11	=11	=11	=11	=11
*	*	*	*^	*^	*	*	*	*	*	*	*
4A 4C#\	4.ryy	.	(8aL 8e\	4.ryy	.	.	mf	(8a\L	za-	do	za-	i	mf
.	.	.	8cc#\)	.	.	.	.	8cc#\J)	.	.	.	.	.
8A 8C#\	.	.	8ee\J	.	.	.	.	8ee\	-pa-	cie-	-pew-	od	.
(8G#/L	4E\	.	(8e/L	4d\	2	1	.	(8e/L	-no-	-plej-	-nio-	na-	.
8A/)	.	.	8f#/)	.	.	.	.	8f#/J)	.	.	.	.	.
8B/J	8E\	.	8g#/J	8d\	.	.	.	8g#/	-wał	-szych	-ny	-szych	.
*	*	*	*	*	*v	*v	*	*	*	*	*	*	*
*v	*v	*	*	*	*	*	*	*	*	*	*	*
*	*	*v	*v	*	*	*	*	*	*	*	*
=12	=12	=12	=12	=12	=12	=12	=12	=12	=12	=12
8A\L	1	4.a 4.c#/	.	.	4.a/	chłód.	stron.	chléb	chat.	.
8C#\	3	.	.	.	.	.	.	.	.	.
8E\J	.	.	.	.	.	.	.	.	.	.
4AA/	.	4r	.	.	4r	.	.	.	.	.
8r	.	8r	.	.	8r	.	.	.	.	.
==	==	==	==	==	==	==	==	==	==	==
*-	*-	*-	*-	*-	*-	*-	*-	*-	*-	*-
!!!system-decoration: s1{(s2,s3)}
!!!RDF**kern: > = above
!!!ENC: Andrzej Gręziak
!!!END: 2025-03-25
!!!EED: Marta Lawrence
!!!EEV: 2025-03-30
